X: 13
T: Jeff Sturgeon
B: canberra pickers and fiddlers
B: tunes
M:4/4
L:1/8
R: reel
Q: 1/4=100
K:Amixolydian
V:1 
"A"[A,2E2]a2 abag|"E"efga b2b2|"A"[A,2E2]a2 abag|"E"efed c2B^G|[M:2/4]"A"A2:||
ef|[M:4/4]"E"g2 ge [E2B2][E2B2]|egge [E2B2][E2B2]|"A"e2e2 efed|"E"cAB^G "A"A2A2||
|:"A"[A,2E2]AB cAcA|"E"[E2B2]Bd cAcA|"A"[A,2E2]AB cAcA|
"E"B2 Bd c2d2|"E"efed cAB^G|[M:2/4]"A"A2AA[M:4/4]:|
% abcbook-tune_id 63ae8f1c4ba5671c61297e52
% abcbook-tune_composer_id 
% abcbook-link-0 https://www.youtube.com/watch?v=K1L8GNBZRt4
% abcbook-link-end-at-0 116
% abcbook-boost 10
% abcbook-difficulty 0
% abcbook-tags canberra pickers and fiddlers,old time tunes,© free
% abcbook-tablature 
% abcbook-transpose 
% abcbook-tuning AEAE
% abcbook-lastupdated 1703028061293
% abcbook-src-url https://tunebook.net/scrape/tunes.abc
% abcbook-soundfonts 
% abcbook-repeats 1


